X: 936
T: Gülizâr Sazsemâîsi
C: Tanburî İsak
O: Turkey
F: http://compmusic.upf.edu/node/140
N: gulizar--sazsemaisi--aksaksemai----tanburi_isak
N: makam= gulizar
N: form= sazsemaisi
N: usul= aksaksemai = 10/8
M: 10/8
L: 1/16
K: C _2/4B ^3/4f  
Q: 1/4=120
%%MIDI tuningsystem comma53
A4 bag3fga gfgf e2z2  | d2_7/8ed ^fed2 c2ed cBc4B2  | 
w:  1. HANE  |   | 
A3a _bag2 ^f2_7/8e2 dcf2 e2d2  | c4 dcBA G2g4g^f _7/8edc2  | 
w:   |   | 
a4 _bag^f _7/8eded cBcd c2B2  | A3a ag^f_7/8e dccB BAA4z2  | 
w:   |   | 
d2e2 g2e4d_7/8e dccd c2B2  | g4 a2^fg _7/8effe edd4z2  | 
w:  TESLİM  |   | 
c'4 c'bag fba2 g^fe4z2  | d_7/8edc de^fe dcBA BGA4z2  | 
w:   |   | 
a4 agfe d2^fe d^cde fga2  | g2a_b agg^f f_7/8eed dced cBc2  | 
w:  2. HANE  |   | 
d4 cBA3G=f4ed cBA2  | a2gf gfg3c'bd' c'bc'b a2z2  | 
w:   |   | 
g4 a_bag ^fgag f_7/8egf edc2  | c4 Bcd2 c2cB BAA4z2  | 
w:   |   | 
d2e2 g2e4d_7/8e dccd c2B2  | g4 a2^fg _7/8effe edd4z2  | 
w:  TESLİM  |   | 
c'4 c'bag fba2 g^fe4z2  | d_7/8edc de^fe dcBA BGA4z2  | 
w:   |   | 
g4 a2ba gfg3abc' d'2z2  | e'2d'c' bagf gac'b agag fed2  | 
w:  3. HANE  |   | 
f3a g=fed c2_B3dcB AG=F2  | =F4 G2A3_Bc4d2 e2=f2  | 
w:   |   | 
g3_b ag=fe dcag fga4z2  | g4 _bag^f _7/8eded c_1/4Bcd efg2  | 
w:   |   | 
_bag2 ^f_7/8egf edcB AGAB cd=e2  | \
w:   | 
d2e2 g2e4d_7/8e dccd c2B2  | 
w:  TESLİM  | 
g4 a2^fg _7/8effe edd4z2  | c'4 c'bag fba2 g^fe4z2  | 
w:   |   | 
d_7/8edc de^fe dcBA BGA4z2  | z24  | \
w:   |  | 
A4c2B2A2G2F2G2A4z4  | 
w:  4. HANE  | 
c2B2A2G2B2A2G2F2E4z4  | e6a2g2_b2a2g2^f2_7/8e2d2e2  | \
w:   |   | 
c2_7/8e2d2c2c2B2B2A2A4z4  | 
w:   | 
a6g2^f2_7/8e2f2g2a4z4  | A2G2A2_1/4B2c2A2_2/4B2G2A4z4  | \
w:   |   | 
e2d2c2B2A2G2F2G2F2E2D4  | 
w:   | 
F2E2F2G2A2G2c2B2A4z4  | _7/8e2d2c2B2c2d2e2^f2g4z4  | \
w:   |   | 
_b2a2g2^f2_7/8e2d2c2_1/4B2c6B2  | 
w:   | 
_7/8e4d2c2d2e2^f2g2f2e2d2c2  | c2_1/4B2d2c2c2_2/4B2B2A2A4z4  | 
w:   |   | 
z20  | d2e2 g2e4d_7/8e dccd c2B2  | g4 a2^fg _7/8effe edd4z2  | 
w:  |  TESLİM  |   | 
c'4 c'bag fba2 g^fe4z2  | d_7/8edc de^fe dcBA BGA4z2  | 
w:   |   | 
|


